packages/flutter/assets/icons/whatsapp.svg

<?xml version="1.0" encoding="UTF-8"?>
<svg width="24px" height="24px" viewBox="0 0 24 24" version="1.1" xmlns="http://www.w3.org/2000/svg" xmlns:xlink="http://www.w3.org/1999/xlink">
    <title>whatsapp</title>
    <g id="whatsapp" stroke="none" stroke-width="1" fill="none" fill-rule="evenodd">
        <path d="M2,22 L3.41254273,16.8641663 C2.54090255,15.360833 2.08289373,13.6566664 2.08373105,11.9091664 C2.08624298,6.44583322 6.55329424,2 12.0418643,2 C14.7053488,2.00083333 17.2055578,3.03333331 19.0861571,4.90666659 C20.9659191,6.77999988 22.0008348,9.26999982 22,11.9183331 C21.9974855,17.3824996 17.5304343,21.8283328 12.0418643,21.8283328 C10.3756165,21.8274995 8.73365066,21.4116662 7.2792424,20.6216662 L2,22 Z M7.52373705,18.8274996 C8.92706937,19.6566662 10.2667661,20.1533329 12.038515,20.1541662 C16.6001824,20.1541662 20.3161661,16.4591663 20.3186786,11.9166664 C20.3203527,7.36499986 16.6219524,3.67499996 12.0452135,3.67333329 C7.48019691,3.67333329 3.76672505,7.3683332 3.76504947,11.9099997 C3.76421312,13.7641664 4.31013954,15.1524997 5.22699448,16.6049996 L4.39052134,19.6449996 L7.52373705,18.8274996 Z M17.0581912,14.2741664 C16.9962302,14.170833 16.8304427,14.1091664 16.5809242,13.9849997 C16.332243,13.860833 15.1089324,13.2616664 14.8803467,13.1791664 C14.6525982,13.0966664 14.4868108,13.0549997 14.320186,13.303333 C14.1543985,13.550833 13.6771316,14.1091664 13.5322769,14.2741664 C13.3874222,14.4391664 13.2417301,14.4599997 12.9930489,14.335833 C12.7443677,14.2116664 11.9422243,13.950833 10.9918769,13.1066664 C10.2525318,12.4499997 9.75265748,11.6391664 9.60780277,11.3908331 C9.46294806,11.1433331 9.59273118,11.0091664 9.71665313,10.8858331 C9.82885273,10.7749998 9.96533433,10.5966664 10.0900936,10.4516665 C10.2165275,10.3083331 10.2575557,10.2049998 10.3412867,10.0391665 C10.4241805,9.87416647 10.3831523,9.72916647 10.320354,9.60499981 C10.2575557,9.48166648 9.76019327,8.26249984 9.55337759,7.76666652 C9.35074846,7.28416653 9.1456074,7.34916653 8.9932169,7.34166653 L8.51594994,7.3333332 C8.35016247,7.3333332 8.08054851,7.39499986 7.85280006,7.64333319 C7.62505162,7.89166652 6.98199719,8.48999984 6.98199719,9.70916647 C6.98199719,10.9283331 7.87373282,12.1058331 7.99765477,12.2708331 C8.12241403,12.4358331 9.75182017,14.9374997 12.2478426,16.0099996 C12.8414957,16.2649996 13.3053657,16.4174996 13.6662465,16.5316663 C14.2624116,16.7199996 14.8049887,16.693333 15.2336917,16.6299996 C15.711796,16.5591663 16.7056835,16.030833 16.9133365,15.4524997 C17.1209895,14.873333 17.1209895,14.3774997 17.0581912,14.2741664 L17.0581912,14.2741664 Z" id="Shape" fill="#303846"></path>
    </g>
</svg>

<svg xmlns="http://www.w3.org/2000/svg" width="24" height="24" viewBox="0 0 24 24"><path fill-rule="evenodd" d="M2 22l1.413-5.136a9.853 9.853 0 0 1-1.33-4.955C2.087 6.446 6.554 2 12.043 2a9.918 9.918 0 0 1 7.044 2.907A9.83 9.83 0 0 1 22 11.918c-.003 5.464-4.47 9.91-9.958 9.91a9.995 9.995 0 0 1-4.763-1.206L2 22zm5.524-3.173c1.403.83 2.743 1.326 4.515 1.327 4.561 0 8.277-3.695 8.28-8.237.001-4.552-3.697-8.242-8.274-8.244-4.565 0-8.278 3.695-8.28 8.237 0 1.854.545 3.242 1.462 4.695l-.836 3.04 3.133-.818zm9.534-4.553c-.062-.103-.228-.165-.477-.289-.249-.124-1.472-.723-1.7-.806-.228-.082-.394-.124-.56.124-.167.248-.644.806-.789.971-.145.165-.29.186-.539.062-.249-.124-1.05-.385-2.001-1.23-.74-.656-1.24-1.467-1.384-1.715-.145-.248-.015-.382.109-.505.112-.111.248-.29.373-.434.127-.144.168-.247.251-.413.083-.165.042-.31-.02-.434-.063-.123-.56-1.343-.768-1.838-.202-.483-.407-.418-.56-.425l-.477-.009a.914.914 0 0 0-.663.31c-.228.249-.871.847-.871 2.066 0 1.22.892 2.397 1.016 2.562.124.165 1.754 2.666 4.25 3.739.593.255 1.057.407 1.418.522.596.188 1.139.161 1.568.098.478-.07 1.472-.6 1.68-1.178.207-.579.207-1.075.144-1.178z"/></svg>
